images/payments/ratepay.svg

<svg width="40" height="40" viewBox="0 0 40 40" fill="none" xmlns="http://www.w3.org/2000/svg">
<path fill-rule="evenodd" clip-rule="evenodd" d="M28.5778 10.7551H24.6667V9.77734H22.7111V10.7551H16.8444V9.77734H14.8889V10.7551H10.9778C10.4371 10.7551 10 11.1922 10 11.7329V28.3551C10 28.8958 10.4371 29.3329 10.9778 29.3329H28.5778C29.1185 29.3329 29.5556 28.8958 29.5556 28.3551V11.7329C29.5556 11.1922 29.1185 10.7551 28.5778 10.7551ZM14.8889 12.7107V13.6885H16.8445V12.7107H22.7111V13.6885H24.6667V12.7107H27.6V15.6441H11.9556V12.7107H14.8889ZM11.9556 27.3774V17.5996H27.6V27.3774H11.9556Z" fill="#191919"/>
<path d="M21.0322 20.0186C20.6351 20.0186 20.3079 20.1341 20.0508 20.3652C19.7936 20.5931 19.6276 20.9251 19.5527 21.3613H21.5205V22.2207H19.4795L19.4697 22.3916V22.6211L19.4795 22.7822H21.2129V23.6514H19.5625C19.7285 24.4424 20.251 24.8379 21.1299 24.8379C21.5954 24.8379 22.043 24.7451 22.4727 24.5596V25.8096C22.0951 26.0016 21.6182 26.0977 21.042 26.0977C20.2445 26.0977 19.5885 25.8812 19.0742 25.4482C18.5599 25.0153 18.236 24.4163 18.1025 23.6514H17.4336V22.7822H18.0098C17.9967 22.7074 17.9902 22.6064 17.9902 22.4795L18 22.2207H17.4336V21.3613H18.083C18.2035 20.5736 18.5273 19.9518 19.0547 19.4961C19.582 19.0371 20.2412 18.8076 21.0322 18.8076C21.6442 18.8076 22.2171 18.9411 22.751 19.208L22.2725 20.3408C22.0479 20.2399 21.8379 20.1618 21.6426 20.1064C21.4473 20.0479 21.2438 20.0186 21.0322 20.0186Z" fill="#179BD7"/>
</svg>

<svg xmlns="http://www.w3.org/2000/svg" width="40" height="40" fill="none"><path fill="#191919" fill-rule="evenodd" d="M28.578 10.755h-3.911v-.978H22.71v.978h-5.867v-.978H14.89v.978h-3.911a.977.977 0 0 0-.978.978v16.622c0 .54.437.978.978.978h17.6c.54 0 .978-.437.978-.978V11.733a.977.977 0 0 0-.978-.978m-13.69 1.956v.977h1.957v-.977h5.866v.977h1.956v-.977H27.6v2.933H11.956v-2.933zm-2.932 14.666V17.6H27.6v9.777z" clip-rule="evenodd"/><path fill="#179BD7" d="M21.032 20.019c-.397 0-.724.115-.981.346-.257.228-.423.56-.498.996h1.967v.86h-2.04l-.01.17v.23l.01.161h1.733v.87h-1.65c.166.79.688 1.186 1.567 1.186.465 0 .913-.093 1.343-.278v1.25c-.378.192-.855.288-1.431.288-.798 0-1.454-.217-1.968-.65-.514-.433-.838-1.032-.972-1.797h-.668v-.869h.576a1.84 1.84 0 0 1-.02-.302l.01-.26h-.566v-.859h.649c.12-.787.444-1.41.972-1.865.527-.459 1.186-.688 1.977-.688a3.79 3.79 0 0 1 1.719.4l-.479 1.133a4.639 4.639 0 0 0-.63-.235 2.116 2.116 0 0 0-.61-.087"/></svg>
